icons/shopping-bag-2-line.svg

<svg xmlns="http://www.w3.org/2000/svg" width="24" height="24" fill="none"><g clip-path="url(#a)"><g><path fill="#121212" d="M20 22H4C3.73478 22 3.48043 21.8946 3.29289 21.7071C3.10536 21.5196 3 21.2652 3 21V3C3 2.73478 3.10536 2.48043 3.29289 2.29289C3.48043 2.10536 3.73478 2 4 2H20C20.2652 2 20.5196 2.10536 20.7071 2.29289C20.8946 2.48043 21 2.73478 21 3V21C21 21.2652 20.8946 21.5196 20.7071 21.7071C20.5196 21.8946 20.2652 22 20 22ZM19 20V4H5V20H19ZM9 6V8C9 8.79565 9.31607 9.55871 9.87868 10.1213C10.4413 10.6839 11.2044 11 12 11C12.7956 11 13.5587 10.6839 14.1213 10.1213C14.6839 9.55871 15 8.79565 15 8V6H17V8C17 9.32608 16.4732 10.5979 15.5355 11.5355C14.5979 12.4732 13.3261 13 12 13C10.6739 13 9.40215 12.4732 8.46447 11.5355C7.52678 10.5979 7 9.32608 7 8V6H9Z"/></g></g><defs><clipPath id="a"><rect width="24" height="24" fill="white"/></clipPath></defs></svg>

<svg width="24" height="24" fill="none" xmlns="http://www.w3.org/2000/svg"><g clip-path="url(#a)"><path d="M20 22H4a1 1 0 0 1-1-1V3a1 1 0 0 1 1-1h16a1 1 0 0 1 1 1v18a1 1 0 0 1-1 1Zm-1-2V4H5v16h14ZM9 6v2a3 3 0 1 0 6 0V6h2v2A5 5 0 1 1 7 8V6h2Z" /></g><defs><clipPath id="a"><path fill="#fff" d="M0 0h24v24H0z"/></clipPath></defs></svg>
